svg/color/unhon.svg

<svg width="40" height="40" viewBox="0 0 40 40" fill="none" xmlns="http://www.w3.org/2000/svg">
<g clip-path="url(#clip0_821_4036)">
<path d="M20 0C31.0457 0 40 8.9543 40 20C40 31.0457 31.0457 40 20 40C8.95431 40 7.90517e-06 31.0457 0 20C6.58765e-07 8.95431 8.95431 1.97595e-06 20 0Z" fill="#CCD8E3"/>
<path d="M26 6C30.4183 6 34 9.58172 34 14V26C34 30.4183 30.4183 34 26 34H14C9.58172 34 6 30.4183 6 26V14C6 9.58172 9.58172 6 14 6H26Z" fill="#003C71"/>
<path d="M28.3924 15.5254C29.7277 15.5254 30.4544 15.8753 30.6366 15.9534C30.896 16.0701 30.9219 16.1221 30.9219 16.2387C30.909 16.3295 30.8963 16.4333 30.8834 16.5241C30.8444 16.7446 30.7796 17.0949 30.7407 17.2895C30.7277 17.3933 30.7016 17.5488 30.546 17.5488C30.4164 17.5486 30.2998 17.3933 30.222 17.3155C29.7421 16.8226 29.08 16.5375 28.3924 16.5375C26.3435 16.5378 25.9931 18.5086 25.9931 20.0002C25.9931 22.0626 26.6545 23.4636 28.3924 23.4638C29.054 23.4638 29.4049 23.3605 29.5087 23.3346V20.4937C29.5087 20.3252 29.6121 20.2731 29.7806 20.273H30.7281C30.9224 20.2731 31 20.3512 31 20.5198V23.6065C31 23.8918 30.9871 23.9178 30.7407 24.0345C30.3386 24.2161 29.7156 24.476 28.3924 24.476C26.2393 24.4758 24.3196 23.5802 24.3196 20.0002C24.3197 17.1987 25.5002 15.5255 28.3924 15.5254ZM10.0768 15.6555C10.2972 15.6556 10.4913 15.863 10.4913 16.0835V21.6737C10.4913 23.0876 11.2703 23.4773 12.2043 23.4773C13.4364 23.4772 13.9163 22.8541 13.9163 21.6737V16.0835C13.9163 15.863 14.1112 15.6555 14.3318 15.6555H14.915C15.1355 15.6555 15.3305 15.863 15.3305 16.0835V21.531C15.3305 23.3341 14.2277 24.4113 12.1782 24.4114C9.83034 24.4114 9 23.0876 9 21.531V16.0835C9 15.863 9.19493 15.6555 9.41545 15.6555H10.0768ZM17.8205 15.6555C18.0409 15.6685 18.2233 15.8496 18.2233 16.0701V19.2223H21.7255V16.0701C21.7256 15.8496 21.907 15.6555 22.1275 15.6555H22.8023C23.0226 15.6686 23.2042 15.8497 23.2043 16.0701V23.8864C23.1812 24.0775 23.0064 24.2165 22.8023 24.2166H22.1535C21.92 24.2166 21.7381 24.0347 21.7381 23.8012V20.325H18.2359V23.8012C18.2359 24.0347 18.054 24.2166 17.8205 24.2166H17.1591C16.9257 24.2166 16.7446 24.0346 16.7446 23.8012V16.0701C16.7447 15.8496 16.9261 15.6555 17.1466 15.6555H17.8205Z" fill="white"/>
</g>
<defs>
<clipPath id="clip0_821_4036">
<rect width="40" height="40" fill="white"/>
</clipPath>
</defs>
</svg>

<svg xmlns="http://www.w3.org/2000/svg" width="40" height="40" fill="none" viewBox="0 0 40 40"><g clip-path="url(#unhon_svg-a)"><path fill="#CCD8E3" d="M20 0c11.046 0 20 8.954 20 20s-8.954 20-20 20S0 31.046 0 20 8.954 0 20 0"/><path fill="#003C71" d="M26 6a8 8 0 0 1 8 8v12a8 8 0 0 1-8 8H14a8 8 0 0 1-8-8V14a8 8 0 0 1 8-8z"/><path fill="#fff" d="M28.392 15.525c1.336 0 2.062.35 2.245.428.259.117.285.17.285.286l-.039.285c-.039.22-.103.57-.142.765-.013.104-.04.26-.195.26-.13 0-.246-.156-.324-.233a2.56 2.56 0 0 0-1.83-.778c-2.049 0-2.399 1.97-2.399 3.462 0 2.063.662 3.464 2.4 3.464.661 0 1.012-.104 1.116-.13v-2.84c0-.169.103-.22.272-.221h.947c.194 0 .272.078.272.247v3.087c0 .285-.013.31-.26.428-.401.181-1.024.441-2.348.441-2.153 0-4.072-.896-4.072-4.476 0-2.801 1.18-4.475 4.072-4.475m-18.315.13c.22 0 .414.208.414.429v5.59c0 1.414.78 1.803 1.713 1.803 1.232 0 1.712-.623 1.712-1.803v-5.59c0-.221.195-.428.416-.428h.583c.22 0 .416.207.416.428v5.447c0 1.803-1.103 2.88-3.153 2.88C9.83 24.411 9 23.088 9 21.531v-5.447c0-.221.195-.428.415-.428zm7.743 0c.22.014.403.195.403.415v3.152h3.503V16.07c0-.22.181-.415.402-.415h.674c.22.014.402.195.402.415v7.816c-.023.192-.198.33-.402.33h-.648a.41.41 0 0 1-.416-.415v-3.476h-3.502v3.476a.41.41 0 0 1-.416.416h-.66a.41.41 0 0 1-.415-.416v-7.73c0-.221.181-.416.402-.416z"/></g><defs><clipPath id="unhon_svg-a"><path fill="#fff" d="M0 0h40v40H0z"/></clipPath></defs></svg>
